;FLAVOR:Marlin
;TIME:2061
;Filament used: 0.323756m
;Layer height: 0.06
;MINX:99.92
;MINY:98.15
;MINZ:0.3
;MAXX:122.039
;MAXY:121.637
;MAXZ:15.96
;Generated with Creality Slicer 1.5.4
M140 S60
M105
M190 S60
M104 S175
M105
M109 S175
M82 ;absolute extrusion mode
G28 ;Home

G92 E0 ;Reset Extruder
G1 Z2.0 F3000 ;Move Z Axis up
G1 X10.1 Y20 Z0.28 F5000.0 ;Move to start position
G1 X10.1 Y200.0 Z0.28 F1500.0 E15 ;Draw the first line
G1 X10.4 Y200.0 Z0.28 F5000.0 ;Move to side a little
G1 X10.4 Y20 Z0.28 F1500.0 E30 ;Draw the second line
G92 E0 ;Reset Extruder
G1 Z2.0 F3000 ;Move Z Axis up

G92 E0
G92 E0
G1 F1800 E-0.5
;LAYER_COUNT:262
;LAYER:0
M107
M205 X10 Y10
G1 F600 Z0.42
G0 F6000 X103.959 Y100.064 Z0.42
M205 X5 Y5
;TYPE:SKIRT
G1 F600 Z0.3
G1 F1800 E0
G1 X104.413 Y99.615 E0.04778
G1 X104.919 Y99.225 E0.09559
G1 X105.469 Y98.902 E0.14333
G1 X106.056 Y98.651 E0.1911
G1 X106.67 Y98.474 E0.23892
G1 X107.41 Y98.364 E0.29491
G1 X108.077 Y98.313 E0.34497
G1 X110.064 Y98.183 E0.49398
G1 X110.724 Y98.15 E0.54344
G1 X111.363 Y98.158 E0.59126
G1 X111.995 Y98.246 E0.63901
G1 X112.708 Y98.446 E0.69443
G1 X113.174 Y98.615 E0.73153
G1 X113.942 Y98.907 E0.79301
G1 X114.424 Y99.085 E0.83147
G1 X115.008 Y99.343 E0.87924
G1 X115.555 Y99.672 E0.92701
G1 X116.13 Y100.134 E0.98221
G1 X116.914 Y100.864 E1.06238
G1 X117.41 Y101.339 E1.11377
G1 X119.585 Y103.305 E1.33318
G1 X120.037 Y103.756 E1.38096
G1 X120.429 Y104.259 E1.42869
G1 X120.755 Y104.808 E1.47647
G1 X121.01 Y105.394 E1.52429
G1 X121.153 Y105.854 E1.56034
G1 X121.374 Y106.71 E1.6265
G1 X121.7 Y108.06 E1.73043
G1 X121.916 Y109.018 E1.80393
G1 X122.017 Y109.649 E1.85175
G1 X122.039 Y110.29 E1.89975
G1 X122.038 Y110.324 E1.90229
G1 X121.979 Y110.96 E1.95009
G1 X121.841 Y111.583 E1.99784
G1 X121.736 Y111.908 E2.0234
G1 X121.318 Y113.063 E2.11532
G1 X121.114 Y113.61 E2.15901
G1 X120.958 Y114.03 E2.19254
G1 X120.696 Y114.613 E2.24037
G1 X120.364 Y115.158 E2.28813
G1 X119.967 Y115.658 E2.33591
G1 X119.475 Y116.145 E2.38771
G1 X117.804 Y117.687 E2.55787
G1 X116.204 Y119.256 E2.72557
G1 X115.725 Y119.717 E2.77532
G1 X115.388 Y120.013 E2.80889
G1 X114.657 Y120.509 E2.875
G1 X114.096 Y120.822 E2.92307
G1 X113.52 Y121.097 E2.97084
G1 X112.914 Y121.299 E3.01864
G1 X112.366 Y121.412 E3.06052
G1 X111.738 Y121.493 E3.1079
G1 X111.075 Y121.558 E3.15775
G1 X110.427 Y121.613 E3.20642
G1 X109.862 Y121.637 E3.24874
G1 X109.013 Y121.59 E3.31237
G1 X108.021 Y121.451 E3.38734
G1 X107.55 Y121.376 E3.42303
G1 X106.862 Y121.256 E3.47529
G1 X106.241 Y121.107 E3.52308
G1 X105.643 Y120.882 E3.5709
G1 X105.079 Y120.584 E3.61863
G1 X104.556 Y120.218 E3.66641
G1 X104.083 Y119.789 E3.71419
G1 X103.667 Y119.304 E3.76201
G1 X103.249 Y118.653 E3.81991
G1 X102.317 Y116.921 E3.9671
G1 X102.021 Y116.393 E4.01239
G1 X101.164 Y114.836 E4.1454
G1 X100.855 Y114.239 E4.1957
G1 X100.531 Y113.456 E4.25912
G1 X100.351 Y112.887 E4.30378
G1 X100.205 Y112.38 E4.34326
G1 X100.038 Y111.536 E4.40765
G1 X99.968 Y110.894 E4.45598
G1 X99.928 Y110.395 E4.49344
G1 X99.92 Y109.694 E4.5459
G1 X99.964 Y109.128 E4.58839
G1 X99.979 Y108.973 E4.60004
G1 X100.04 Y108.442 E4.64004
G1 X100.206 Y107.615 E4.70316
G1 X100.385 Y106.999 E4.75117
G1 X100.53 Y106.545 E4.78683
G1 X100.773 Y105.925 E4.83667
G1 X100.882 Y105.703 E4.85518
G1 X101.198 Y105.093 E4.90659
G1 X101.423 Y104.66 E4.9431
G1 X102.061 Y103.465 E5.04448
G1 X103.078 Y101.425 E5.21506
G1 X103.238 Y101.115 E5.24117
G1 X103.566 Y100.567 E5.28896
G1 X103.959 Y100.064 E5.33673
M205 X10 Y10
G0 F6000 X104.457 Y100.409
M205 X5 Y5
G1 F1800 X104.891 Y99.996 E5.38157
G1 X105.376 Y99.643 E5.42646
G1 X105.904 Y99.359 E5.47132
G1 X106.465 Y99.147 E5.5162
G1 X107.151 Y98.997 E5.56875
G1 X107.457 Y98.963 E5.5918
G1 X108.116 Y98.912 E5.64126
G1 X110.094 Y98.783 E5.7896
G1 X110.754 Y98.75 E5.83905
G1 X111.354 Y98.76 E5.88396
G1 X111.947 Y98.849 E5.92883
G1 X112.504 Y99.01 E5.97222
G1 X112.961 Y99.176 E6.00861
G1 X113.753 Y99.477 E6.07201
G1 X114.216 Y99.648 E6.10895
G1 X114.763 Y99.892 E6.15377
G1 X115.273 Y100.208 E6.19867
G1 X115.721 Y100.574 E6.24196
G1 X116.499 Y101.297 E6.32144
G1 X117.016 Y101.793 E6.37506
G1 X119.076 Y103.656 E6.58291
G1 X119.188 Y103.755 E6.5941
G1 X119.611 Y104.18 E6.63897
G1 X119.974 Y104.658 E6.68389
G1 X120.27 Y105.18 E6.7288
G1 X120.572 Y106.004 E6.79447
G1 X120.791 Y106.851 E6.85994
G1 X121.115 Y108.192 E6.96319
G1 X121.331 Y109.15 E7.03668
G1 X121.423 Y109.743 E7.08159
G1 X121.439 Y110.272 E7.12119
G1 X121.438 Y110.306 E7.12374
G1 X121.381 Y110.903 E7.16862
G1 X121.172 Y111.704 E7.23057
G1 X120.757 Y112.851 E7.32185
G1 X120.579 Y113.323 E7.3596
G1 X120.396 Y113.819 E7.39916
G1 X120.148 Y114.366 E7.44411
G1 X119.83 Y114.874 E7.48896
G1 X119.283 Y115.5 E7.55117
G1 X119.012 Y115.757 E7.57912
G1 X117.384 Y117.258 E7.74483
G1 X115.787 Y118.823 E7.91216
G1 X115.308 Y119.284 E7.96191
G1 X115.01 Y119.548 E7.99171
G1 X114.365 Y119.985 E8.05001
G1 X113.804 Y120.298 E8.09809
G1 X113.262 Y120.554 E8.14294
G1 X112.69 Y120.737 E8.18789
G1 X112.15 Y120.837 E8.22899
G1 X111.573 Y120.907 E8.27248
G1 X111.025 Y120.96 E8.31368
G1 X110.377 Y121.015 E8.36235
G1 X109.845 Y121.037 E8.4022
G1 X109.096 Y120.996 E8.45833
G1 X108.115 Y120.859 E8.53246
G1 X107.653 Y120.785 E8.56747
G1 X106.965 Y120.665 E8.61974
G1 X106.382 Y120.523 E8.66464
G1 X105.824 Y120.305 E8.70947
G1 X105.299 Y120.014 E8.75439
G1 X104.818 Y119.656 E8.79927
G1 X104.389 Y119.237 E8.84414
G1 X104.019 Y118.765 E8.88902
G1 X103.778 Y118.369 E8.92371
G1 X102.842 Y116.631 E9.07144
G1 X102.547 Y116.104 E9.11664
G1 X101.631 Y114.437 E9.25898
G1 X101.388 Y113.965 E9.29871
G1 X101.102 Y113.274 E9.35467
G1 X100.928 Y112.721 E9.39806
G1 X100.782 Y112.214 E9.43754
G1 X100.634 Y111.469 E9.49438
G1 X100.566 Y110.846 E9.54128
G1 X100.526 Y110.347 E9.57875
G1 X100.519 Y109.729 E9.625
G1 X100.562 Y109.178 E9.66636
G1 X100.575 Y109.041 E9.67666
G1 X100.636 Y108.51 E9.71665
G1 X100.782 Y107.781 E9.77229
G1 X100.956 Y107.182 E9.81897
G1 X101.101 Y106.728 E9.85464
G1 X101.316 Y106.181 E9.89862
G1 X101.415 Y105.978 E9.91552
G1 X101.727 Y105.376 E9.96626
G1 X101.952 Y104.943 E10.00278
G1 X102.598 Y103.733 E10.10543
G1 X103.611 Y101.7 E10.27541
G1 X103.771 Y101.39 E10.30152
G1 X104.081 Y100.877 E10.34637
G1 X104.457 Y100.409 E10.3913
M205 X10 Y10
G0 F6000 X104.951 Y100.759
M205 X5 Y5
G1 F1800 X105.365 Y100.384 E10.4331
G1 X105.828 Y100.072 E10.47488
G1 X106.33 Y99.829 E10.51662
G1 X106.863 Y99.661 E10.55844
G1 X107.503 Y99.561 E10.60692
G1 X108.155 Y99.51 E10.65586
G1 X110.064 Y99.385 E10.79903
G1 X110.784 Y99.349 E10.85297
G1 X111.342 Y99.361 E10.89474
G1 X111.893 Y99.453 E10.93655
G1 X112.684 Y99.713 E10.99886
G1 X113.554 Y100.042 E11.06846
G1 X114.008 Y100.21 E11.10469
G1 X114.517 Y100.441 E11.14652
G1 X114.987 Y100.741 E11.18825
G1 X115.313 Y101.013 E11.22002
G1 X116.084 Y101.731 E11.29886
G1 X116.587 Y102.213 E11.351
G1 X118.7 Y104.125 E11.56425
G1 X118.792 Y104.206 E11.57343
G1 X119.184 Y104.604 E11.61523
G1 X119.514 Y105.053 E11.65693
G1 X119.778 Y105.545 E11.69872
G1 X119.991 Y106.155 E11.74707
G1 X120.208 Y106.992 E11.81178
G1 X120.529 Y108.324 E11.91431
G1 X120.745 Y109.282 E11.9878
G1 X120.829 Y109.834 E12.02959
G1 X120.838 Y110.289 E12.06364
G1 X120.782 Y110.844 E12.10539
G1 X120.608 Y111.5 E12.15618
G1 X120.195 Y112.64 E12.24692
G1 X119.983 Y113.211 E12.2925
G1 X119.834 Y113.609 E12.3243
G1 X119.601 Y114.116 E12.36606
G1 X119.298 Y114.585 E12.40784
G1 X118.869 Y115.065 E12.45602
G1 X118.605 Y115.316 E12.48328
G1 X116.981 Y116.813 E12.64857
G1 X115.371 Y118.391 E12.81728
G1 X114.892 Y118.852 E12.86703
G1 X114.631 Y119.082 E12.89306
G1 X114.072 Y119.461 E12.9436
G1 X113.511 Y119.774 E12.99168
G1 X113.006 Y120.01 E13.03339
G1 X112.471 Y120.172 E13.07522
G1 X111.943 Y120.26 E13.11528
G1 X111.021 Y120.358 E13.18467
G1 X110.326 Y120.417 E13.23687
G1 X109.827 Y120.437 E13.27424
G1 X109.178 Y120.402 E13.32288
G1 X108.209 Y120.266 E13.3961
G1 X107.756 Y120.194 E13.43043
G1 X107.068 Y120.074 E13.48269
G1 X106.526 Y119.939 E13.52449
G1 X106.009 Y119.728 E13.56628
G1 X105.528 Y119.445 E13.60805
G1 X105.092 Y119.097 E13.64979
G1 X104.71 Y118.69 E13.69156
G1 X104.306 Y118.084 E13.74607
G1 X103.637 Y116.843 E13.85157
G1 X103.379 Y116.361 E13.89249
G1 X103.072 Y115.815 E13.93936
G1 X102.215 Y114.258 E14.07237
G1 X101.922 Y113.69 E14.12019
G1 X101.674 Y113.091 E14.16871
G1 X101.504 Y112.555 E14.21079
G1 X101.358 Y112.048 E14.25028
G1 X101.23 Y111.402 E14.29956
G1 X101.164 Y110.798 E14.34503
G1 X101.124 Y110.299 E14.38249
G1 X101.118 Y109.763 E14.42261
G1 X101.16 Y109.228 E14.46277
G1 X101.171 Y109.11 E14.47163
G1 X101.232 Y108.579 E14.51163
G1 X101.359 Y107.946 E14.55995
G1 X101.528 Y107.364 E14.6053
G1 X101.673 Y106.91 E14.64097
G1 X101.859 Y106.436 E14.67907
G1 X101.948 Y106.254 E14.69423
G1 X102.257 Y105.658 E14.74447
G1 X102.481 Y105.225 E14.78096
G1 X103.135 Y104.001 E14.88481
G1 X104.144 Y101.975 E15.05419
G1 X104.304 Y101.665 E15.0803
G1 X104.595 Y101.189 E15.12205
G1 X104.951 Y100.759 E15.16382
M205 X10 Y10
G0 F6000 X105.442 Y101.115
M205 X5 Y5
G1 F1800 X105.834 Y100.782 E15.20231
G1 X106.271 Y100.514 E15.24068
G1 X106.746 Y100.317 E15.27916
G1 X107.316 Y100.185 E15.32294
G1 X107.55 Y100.159 E15.34056
G1 X108.194 Y100.109 E15.3889
G1 X110.154 Y99.981 E15.53589
G1 X110.814 Y99.948 E15.58535
G1 X111.327 Y99.962 E15.62375
G1 X111.832 Y100.056 E15.66219
G1 X112.481 Y100.277 E15.7135
G1 X113.318 Y100.595 E15.7805
G1 X113.8 Y100.773 E15.81896
G1 X114.267 Y100.988 E15.85743
G1 X114.694 Y101.273 E15.89585
G1 X114.904 Y101.452 E15.9165
G1 X115.669 Y102.164 E15.99471
G1 X116.193 Y102.666 E16.04901
G1 X118.423 Y104.683 E16.27403
G1 X118.754 Y105.024 E16.30959
G1 X119.05 Y105.443 E16.34798
G1 X119.278 Y105.904 E16.38647
G1 X119.41 Y106.306 E16.41814
G1 X119.624 Y107.133 E16.48206
G1 X119.944 Y108.456 E16.58393
G1 X120.16 Y109.414 E16.65742
G1 X120.234 Y109.922 E16.69584
G1 X120.239 Y110.271 E16.72196
G1 X120.184 Y110.781 E16.76034
G1 X120.043 Y111.296 E16.8003
G1 X119.634 Y112.428 E16.89037
G1 X119.417 Y113.011 E16.93693
G1 X119.272 Y113.398 E16.96786
G1 X119.055 Y113.863 E17.00626
G1 X118.768 Y114.289 E17.0447
G1 X118.235 Y114.84 E17.10207
G1 X116.563 Y116.382 E17.27228
G1 X114.955 Y117.959 E17.44083
G1 X114.476 Y118.42 E17.49058
G1 X114.253 Y118.616 E17.51279
G1 X113.78 Y118.937 E17.55557
G1 X113.219 Y119.25 E17.60365
G1 X112.752 Y119.464 E17.64209
G1 X112.099 Y119.632 E17.69255
G1 X111.526 Y119.705 E17.73578
G1 X110.963 Y119.761 E17.77812
G1 X110.275 Y119.819 E17.82979
G1 X109.81 Y119.838 E17.86461
G1 X109.261 Y119.807 E17.90576
G1 X108.302 Y119.673 E17.97823
G1 X107.859 Y119.603 E18.01179
G1 X107.171 Y119.483 E18.06406
G1 X106.674 Y119.356 E18.10244
G1 X106.202 Y119.153 E18.14089
G1 X105.768 Y118.879 E18.1793
G1 X105.381 Y118.541 E18.21776
G1 X105.051 Y118.148 E18.25616
G1 X104.834 Y117.799 E18.28691
G1 X103.902 Y116.067 E18.4341
G1 X103.598 Y115.525 E18.48061
G1 X102.698 Y113.888 E18.62041
G1 X102.455 Y113.416 E18.66014
G1 X102.245 Y112.909 E18.7012
G1 X102.081 Y112.389 E18.74201
G1 X101.935 Y111.882 E18.78149
G1 X101.826 Y111.336 E18.82316
G1 X101.763 Y110.75 E18.86726
G1 X101.723 Y110.251 E18.90473
G1 X101.722 Y109.711 E18.94514
G1 X101.768 Y109.178 E18.98517
G1 X101.829 Y108.647 E19.02517
G1 X101.935 Y108.112 E19.06599
G1 X102.099 Y107.547 E19.11001
G1 X102.402 Y106.692 E19.1779
G1 X102.481 Y106.53 E19.19138
G1 X102.786 Y105.941 E19.24102
G1 X103.01 Y105.508 E19.2775
G1 X103.672 Y104.269 E19.38263
G1 X104.678 Y102.25 E19.55144
G1 X104.838 Y101.94 E19.57755
G1 X105.108 Y101.504 E19.61592
G1 X105.442 Y101.115 E19.65429
M205 X10 Y10
G1 F1800 E19.15429
G1 F600 Z0.42
G0 F6000 X107.998 Y103.729 Z0.42
M205 X5 Y5
;TYPE:SUPPORT
G1 F600 Z0.3
G1 F1800 E19.65429
G1 X110.705 Y103.552 E19.85731
G1 X110.719 Y103.731 E19.87074
G1 X111.128 Y104.108 E19.91237
G1 X111.113 Y104.105 E19.91351
G1 X110.073 Y104.003 E19.99172
G1 X109.947 Y104.003 E20.00115
G1 X108.891 Y104.105 E20.08054
G1 X108.765 Y104.131 E20.09017
G1 X107.812 Y104.419 E20.16467
G1 X107.998 Y103.729 E20.21815
M205 X10 Y10
G1 F1800 E19.71815
G1 F600 Z0.42
G0 F6000 X111.337 Y104.161 Z0.42
M205 X5 Y5
G1 F600 Z0.3
G1 F1800 E20.21815
G1 X112.306 Y104.161 E20.29067
G1 X112.252 Y104.442 E20.31208
G1 X112.23 Y104.433 E20.31386
G1 X111.337 Y104.161 E20.38372
M205 X10 Y10
G1 F1800 E19.88372
G1 F600 Z0.42
G0 F6000 X110.528 Y107.384 Z0.42
M205 X5 Y5
G1 F600 Z0.3
G1 F1800 E20.38372
G1 X111.013 Y107.53 E20.42162
G1 X111.488 Y107.783 E20.4619
G1 X111.889 Y108.111 E20.50066
G1 X112.216 Y108.511 E20.53933
G1 X112.468 Y108.983 E20.57937
G1 X112.618 Y109.473 E20.61772
G1 X112.668 Y109.993 E20.65681
G1 X112.617 Y110.525 E20.69681
G1 X112.469 Y111.015 E20.73511
G1 X112.217 Y111.488 E20.77522
G1 X112.105 Y111.625 E20.78846
G1 X107.895 Y111.625 E21.10352
G1 X107.784 Y111.489 E21.11666
G1 X107.532 Y111.017 E21.1567
G1 X107.382 Y110.527 E21.19505
G1 X107.332 Y110 E21.23466
G1 X107.384 Y109.472 E21.27437
G1 X107.53 Y108.987 E21.31227
G1 X107.783 Y108.512 E21.35254
G1 X108.111 Y108.111 E21.39131
G1 X108.511 Y107.784 E21.42998
G1 X108.983 Y107.532 E21.47002
G1 X109.473 Y107.382 E21.50837
G1 X110 Y107.332 E21.54798
G1 X110.528 Y107.384 E21.58769
M205 X10 Y10
G1 F1800 E21.08769
G1 F600 Z0.42
G0 F6000 X109.347 Y107.616 Z0.42
M205 X5 Y5
G1 F600 Z0.3
G1 F1800 E21.58769
G1 X109.347 Y111.438 E21.87371
M205 X10 Y10
G1 F1800 E21.37371
G1 F600 Z0.42
G0 F6000 X112.014 Y111.438 Z0.42
M205 X5 Y5
G1 F600 Z0.3
G1 F1800 E21.87371
G1 X112.014 Y108.56 E22.08908
M205 X10 Y10
G0 F6000 X112.384 Y109.347
M205 X5 Y5
G1 F1800 X107.617 Y109.347 E22.44582
M205 X10 Y10
G1 F1800 E21.94582
G1 F600 Z0.42
G0 F6000 X115.404 Y107.432 Z0.42
M205 X5 Y5
G1 F600 Z0.3
G1 F1800 E22.44582
G1 X115.992 Y107.432 E22.48983
G1 X116.603 Y109.952 E22.68388
G1 X116.24 Y110.256 E22.71931
G1 X115.94 Y111.945 E22.84768
G1 X115.654 Y111.945 E22.86909
G1 X115.869 Y111.239 E22.92432
G1 X115.895 Y111.113 E22.93394
G1 X115.997 Y110.073 E23.01215
G1 X115.997 Y109.947 E23.02158
G1 X115.895 Y108.891 E23.10097
G1 X115.869 Y108.765 E23.1106
G1 X115.568 Y107.769 E23.18846
G1 X115.52 Y107.65 E23.19807
G1 X115.404 Y107.432 E23.21655
M205 X10 Y10
G1 F1800 E22.71655
G1 F600 Z0.42
G0 F6000 X111.88 Y115.674 Z0.42
M205 X5 Y5
G1 F600 Z0.3
G1 F1800 E23.21655
G1 X111.88 Y115.799 E23.2259
G1 X111.756 Y115.815 E23.23526
G1 X111.477 Y116.091 E23.26463
G1 X111.321 Y116.108 E23.27637
G1 X109.969 Y116.241 E23.37803
G1 X109.89 Y116.234 E23.38397
G1 X109.686 Y116.248 E23.39927
G1 X108.032 Y115.986 E23.52459
G1 X108.032 Y115.647 E23.54996
G1 X108.761 Y115.869 E23.60699
G1 X108.887 Y115.895 E23.61662
G1 X109.927 Y115.997 E23.69482
G1 X110.053 Y115.997 E23.70425
G1 X111.109 Y115.895 E23.78364
G1 X111.235 Y115.869 E23.79327
G1 X111.88 Y115.674 E23.8437
M205 X10 Y10
G1 F1800 E23.3437
G1 F600 Z0.42
;MESH:shaftbuddy5.stl
G0 F6000 X112.201 Y113.487 Z0.42
M205 X5 Y5
;TYPE:WALL-INNER
G1 F600 Z0.3
G1 F1800 E23.8437
G1 X111.579 Y113.819 E23.88987
G1 X110.962 Y114.006 E23.93208
G1 X110.803 Y114.055 E23.94298
G1 X109.992 Y114.133 E23.99633
G1 X109.195 Y114.055 E24.04876
G1 X109.036 Y114.006 E24.05966
G1 X108.42 Y113.819 E24.10181
G1 X107.799 Y113.487 E24.14792
G1 X108.42 Y113.487 E24.15984
G1 X109.064 Y113.487 E24.19438
G1 X110.934 Y113.487 E24.31683
G1 X111.579 Y113.487 E24.35141
G1 X112.201 Y113.487 E24.36336
M205 X10 Y10
G0 F6000 X112.67 Y112.925
M205 X5 Y5
;TYPE:WALL-OUTER
G1 F1800 X112.81 Y112.814 E24.37673
G1 X113.307 Y112.209 E24.43532
G1 X113.675 Y111.517 E24.49397
G1 X113.9 Y110.771 E24.55228
G1 X113.975 Y109.991 E24.61092
G1 X113.9 Y109.224 E24.6686
G1 X113.674 Y108.479 E24.72686
G1 X113.307 Y107.791 E24.78521
G1 X112.812 Y107.188 E24.84359
G1 X112.209 Y106.693 E24.90198
G1 X111.517 Y106.325 E24.96063
G1 X110.772 Y106.1 E25.01887
G1 X110 Y106.024 E25.07692
G1 X109.224 Y106.1 E25.13527
G1 X108.479 Y106.326 E25.19353
G1 X107.791 Y106.693 E25.25189
G1 X107.188 Y107.188 E25.31027
G1 X106.693 Y107.791 E25.36865
G1 X106.325 Y108.483 E25.42731
G1 X106.1 Y109.228 E25.48555
G1 X106.024 Y110 E25.5436
G1 X106.1 Y110.776 E25.60195
G1 X106.326 Y111.521 E25.66021
G1 X106.693 Y112.209 E25.71856
